src/assets/outline/Message.svg

<?xml version="1.0" encoding="UTF-8"?>
<svg width="24" height="24" viewBox="0 0 24 24" xmlns="http://www.w3.org/2000/svg">
 <path d="m12 22.81c-0.69 0-1.34-0.35-1.8-0.96l-1.5-2c-0.03-0.04-0.15-0.09-0.2-0.1h-0.5c-4.17 0-6.75-1.13-6.75-6.75v-5c0-4.42 2.33-6.75 6.75-6.75h8c4.42 0 6.75 2.33 6.75 6.75v5c0 4.42-2.33 6.75-6.75 6.75h-0.5c-0.08 0-0.15 0.04-0.2 0.1l-1.5 2c-0.46 0.61-1.11 0.96-1.8 0.96zm-4-20.06c-3.58 0-5.25 1.67-5.25 5.25v5c0 4.52 1.55 5.25 5.25 5.25h0.5c0.51 0 1.09 0.29 1.4 0.7l1.5 2c0.35 0.46 0.85 0.46 1.2 0l1.5-2c0.33-0.44 0.85-0.7 1.4-0.7h0.5c3.58 0 5.25-1.67 5.25-5.25v-5c0-3.58-1.67-5.25-5.25-5.25h-8z"/>
 <path d="m12 12c-0.56 0-1-0.45-1-1s0.45-1 1-1 1 0.45 1 1-0.44 1-1 1z"/>
 <path d="m16 12c-0.56 0-1-0.45-1-1s0.45-1 1-1 1 0.45 1 1-0.44 1-1 1z"/>
 <path d="m8 12c-0.56 0-1-0.45-1-1s0.45-1 1-1 1 0.45 1 1-0.44 1-1 1z"/>
</svg>

<svg width="24" height="24" viewBox="0 0 24 24"  xmlns="http://www.w3.org/2000/svg">
<path d="M12 22.81C11.31 22.81 10.66 22.46 10.2 21.85L8.7 19.85C8.67 19.81 8.55 19.76 8.5 19.75H8C3.83 19.75 1.25 18.62 1.25 13V8C1.25 3.58 3.58 1.25 8 1.25H16C20.42 1.25 22.75 3.58 22.75 8V13C22.75 17.42 20.42 19.75 16 19.75H15.5C15.42 19.75 15.35 19.79 15.3 19.85L13.8 21.85C13.34 22.46 12.69 22.81 12 22.81ZM8 2.75C4.42 2.75 2.75 4.42 2.75 8V13C2.75 17.52 4.3 18.25 8 18.25H8.5C9.01 18.25 9.59 18.54 9.9 18.95L11.4 20.95C11.75 21.41 12.25 21.41 12.6 20.95L14.1 18.95C14.43 18.51 14.95 18.25 15.5 18.25H16C19.58 18.25 21.25 16.58 21.25 13V8C21.25 4.42 19.58 2.75 16 2.75H8Z" />
<path d="M12 12C11.44 12 11 11.55 11 11C11 10.45 11.45 10 12 10C12.55 10 13 10.45 13 11C13 11.55 12.56 12 12 12Z" />
<path d="M16 12C15.44 12 15 11.55 15 11C15 10.45 15.45 10 16 10C16.55 10 17 10.45 17 11C17 11.55 16.56 12 16 12Z" />
<path d="M8 12C7.44 12 7 11.55 7 11C7 10.45 7.45 10 8 10C8.55 10 9 10.45 9 11C9 11.55 8.56 12 8 12Z" />
</svg>
